symbols/web/sell/materialsymbolssharp/sell_wght500fill1_40px.svg

<svg xmlns="http://www.w3.org/2000/svg" height="40" width="40"><path d="m21.458 38.375-18.5-18.458V2.958h17l18.459 18.459ZM10.417 12.667q.916 0 1.604-.667.687-.667.687-1.625 0-.917-.687-1.583-.688-.667-1.604-.667-.917 0-1.605.667-.687.666-.687 1.583 0 .958.687 1.625.688.667 1.605.667Z"/></svg>

<svg xmlns="http://www.w3.org/2000/svg" height="40" width="40"><path d="M21.458 38.375 2.958 19.917V2.958H19.958L38.417 21.417ZM10.417 12.667Q11.333 12.667 12.021 12Q12.708 11.333 12.708 10.375Q12.708 9.458 12.021 8.792Q11.333 8.125 10.417 8.125Q9.5 8.125 8.812 8.792Q8.125 9.458 8.125 10.375Q8.125 11.333 8.812 12Q9.5 12.667 10.417 12.667Z"/></svg>
